src/libOpenImageIO/interop-identities-config.ocio

ocio_profile_version: 2.3
# Keep in sync with OpenImageIO minimum OCIO version

name: interop-identities-config-v0.26.1.8

description: |
  Interop Identities Reference Config
  -----------------------------------
  A minimal config defining color spaces associated with known CIF and OCIO-builtin 
  color space interop_ids, backported for the minimum version of OCIO currently 
  allowed by OpenImageIO. 

  There is a 1:1 relationship between each color space's name and interop_id.
  
  This config provides functionally equivalent color spaces current with:
    - core-display-config-v1.0.0
    - core-renderer-config-v1.0.0
    - ocio://studio-config-v4.0.0_aces-v2.0_ocio-v2.5

    Note: This config does not include the following color spaces:
      - ocio:applelog_rec2020_scene
      - ocio:applelog_applewg_scene

  Note (Jan 8, 2024): 
    Once we require OCIO v2.5+, we can remove almost all of these color spaces.
    In the future, this config will consist of only the camera color spaces
    we want to backport from future studio configs, and / or community-provided
    "oiio:"-namespaced color spaces not available in OCIO builtins.

roles:
  aces_interchange: lin_ap0_scene
  cie_xyz_d65_interchange: lin_ciexyzd65_display
  compositing_log: ocio:acescct_ap1_scene
  color_timing: ocio:acescct_ap1_scene
  scene_linear: lin_ap1_scene
  default: data


file_rules:
  - !<Rule> {name: Default, colorspace: default}

shared_views:
  - !<View> {name: None, colorspace: data}

displays:
  g24_rec709_display:
    - !<Views> [None]

default_view_transform: scene_to_display_bridge

view_transforms:
  - !<ViewTransform>
    name: scene_to_display_bridge
    from_scene_reference: !<BuiltinTransform> {style: UTILITY - ACES-AP0_to_CIE-XYZ-D65_BFD}

colorspaces:
  - !<ColorSpace>
    name: lin_ap0_scene
    interop_id: lin_ap0_scene
    encoding: scene-linear

  - !<ColorSpace>
    name: lin_ap1_scene
    interop_id: lin_ap1_scene
    encoding: scene-linear
    to_scene_reference: !<BuiltinTransform> {style: ACEScg_to_ACES2065-1}

  - !<ColorSpace>
    name: lin_rec709_scene
    interop_id: lin_rec709_scene
    encoding: scene-linear
    to_scene_reference: !<MatrixTransform> {name: rec709_to_ap0, matrix: [0.439632981919491, 0.382988698151554, 0.177378319928955, 0, 0.0897764429588424, 0.813439428748981, 0.0967841282921771, 0, 0.0175411703831727, 0.111546553302387, 0.87091227631444, 0, 0, 0, 0, 1]}

  - !<ColorSpace>
    name: lin_p3d65_scene
    interop_id: lin_p3d65_scene
    encoding: scene-linear
    to_scene_reference: !<MatrixTransform> {name: p3d65_to_ap0, matrix: [0.518933487597981, 0.28625658638669, 0.194809926015329, 0, 0.0738593830470598, 0.819845163936986, 0.106295453015954, 0, -0.000307011368446647, 0.0438070502536223, 0.956499961114824, 0, 0, 0, 0, 1]}

  - !<ColorSpace>
    name: lin_rec2020_scene
    interop_id: lin_rec2020_scene
    encoding: scene-linear
    to_scene_reference: !<MatrixTransform> {name: rec2020_to_ap0, matrix: [0.679085634706912, 0.157700914643159, 0.163213450649929, 0, 0.0460020030800595, 0.859054673002908, 0.0949433239170327, 0, -0.000573943187616196, 0.0284677684080264, 0.97210617477959, 0, 0, 0, 0, 1]}
  
  - !<ColorSpace>
    name: lin_adobergb_scene
    interop_id: lin_adobergb_scene
    encoding: scene-linear
    to_scene_reference: !<MatrixTransform> {name: adobe1998_to_ap0, matrix: [0.614763305501725, 0.200243702572018, 0.184992991926256, 0, 0.125539404683864, 0.773521622216629, 0.100938973099507, 0, 0.0245287963611042, 0.0671715435381276, 0.908299660100768, 0, 0, 0, 0, 1]}

  - !<ColorSpace>
    name: lin_ciexyzd65_scene
    interop_id: lin_ciexyzd65_scene
    encoding: scene-linear
    to_scene_reference: !<MatrixTransform> {name: ciexyzd65_to_ap0, matrix: [1.0634954914942, 0.00640891019711789, -0.0158067866176054, 0, -0.492074127923892, 1.36822340747333, 0.0913370883144736, 0, -0.00281646163925351, 0.00464417105680067, 0.916418574593656, 0, 0, 0, 0, 1]}

  - !<ColorSpace>
    name: ocio:acescc_ap1_scene
    interop_id: ocio:acescc_ap1_scene
    encoding: log
    to_scene_reference: !<BuiltinTransform> {style: ACEScc_to_ACES2065-1}
  
  - !<ColorSpace>
    name: ocio:acescct_ap1_scene
    interop_id: ocio:acescct_ap1_scene
    encoding: log
    to_scene_reference: !<BuiltinTransform> {style: ACEScct_to_ACES2065-1}

  - !<ColorSpace>
    name: ocio:adx10_apd_scene
    interop_id: ocio:adx10_apd_scene
    encoding: log
    to_scene_reference: !<BuiltinTransform> {style: ADX10_to_ACES2065-1}

  - !<ColorSpace>
    name: ocio:adx16_apd_scene
    interop_id: ocio:adx16_apd_scene
    encoding: log
    to_scene_reference: !<BuiltinTransform> {style: ADX16_to_ACES2065-1}

  - !<ColorSpace>
    name: ocio:lin_applewg_scene
    interop_id: ocio:lin_applewg_scene
    encoding: scene-linear
    to_scene_reference: !<MatrixTransform> {name: applewg_to_ap0, matrix: [0.694961049318096, 0.241405268785364, 0.06363368189654, 0, 0.0473627464149325, 1.00429592505428, -0.0516586714692158, 0, -0.021989789359883, -0.0289891049714743, 1.05097889433136, 0, 0, 0, 0, 1]}

  - !<ColorSpace>
    name: ocio:arrilogc3_awg3_scene
    interop_id: ocio:arrilogc3_awg3_scene
    encoding: log
    to_scene_reference: !<BuiltinTransform> {style: ARRI_ALEXA-LOGC-EI800-AWG_to_ACES2065-1}

  - !<ColorSpace>
    name: ocio:lin_awg3_scene
    interop_id: ocio:lin_awg3_scene
    encoding: scene-linear
    to_scene_reference: !<MatrixTransform> {name: awg3_to_ap0, matrix: [0.680205505106279, 0.236136601606481, 0.0836578932872398, 0, 0.0854149797421404, 1.01747087860704, -0.102885858349182, 0, 0.00205652166929683, -0.0625625003847921, 1.06050597871549, 0, 0, 0, 0, 1]}

  - !<ColorSpace>
    name: ocio:arrilogc4_awg4_scene
    interop_id: ocio:arrilogc4_awg4_scene
    encoding: log
    to_scene_reference: !<BuiltinTransform> {style: ARRI_LOGC4_to_ACES2065-1}

  - !<ColorSpace>
    name: ocio:lin_awg4_scene
    interop_id: ocio:lin_awg4_scene
    encoding: scene-linear
    to_scene_reference: !<MatrixTransform> {name: awg4_to_ap0, matrix: [0.750957362824734, 0.144422786709757, 0.104619850465509, 0, 0.000821837079380207, 1.007397584885, -0.00821942196438358, 0, -0.000499952143533471, -0.000854177231436971, 1.00135412937497, 0, 0, 0, 0, 1]}

  - !<ColorSpace>
    name:  ocio:bmdfilm5_wg5_scene
    interop_id:  ocio:bmdfilm5_wg5_scene
    encoding: log
    to_scene_reference: !<GroupTransform>
      children:
        - !<LogCameraTransform> {name: bmdfilm5, base: 2.71828182845905, log_side_slope: 0.0869287606549122, log_side_offset: 0.530013339229194, lin_side_offset: 0.00549407243225781, lin_side_break: 0.005, direction: inverse}
        - !<MatrixTransform> {name: bmdwg5_to_ap0, matrix: [0.647091325580708, 0.242595385134207, 0.110313289285085, 0, 0.0651915997328519, 1.02504756760476, -0.0902391673376125, 0, -0.0275570729194699, -0.0805887097177784, 1.10814578263725, 0, 0, 0, 0, 1]}

  - !<ColorSpace>
    name: ocio:lin_bmdwg5_scene
    interop_id: ocio:lin_bmdwg5_scene
    encoding: scene-linear
    to_scene_reference: !<MatrixTransform> {name: bmdwg5_to_ap0, matrix: [0.647091325580708, 0.242595385134207, 0.110313289285085, 0, 0.0651915997328519, 1.02504756760476, -0.0902391673376125, 0, -0.0275570729194699, -0.0805887097177784, 1.10814578263725, 0, 0, 0, 0, 1]}

  - !<ColorSpace>
    name: ocio:davinci_dwg_scene
    interop_id: ocio:davinci_dwg_scene
    encoding: log
    to_scene_reference: !<GroupTransform>
      children:
        - !<LogCameraTransform> {name: davinciintermediate, log_side_slope: 0.07329248, log_side_offset: 0.51304736, lin_side_offset: 0.0075, lin_side_break: 0.00262409, linear_slope: 10.44426855, direction: inverse}
        - !<MatrixTransform> {name: dwg_to_ap0, matrix: [0.748270290272981, 0.167694659554328, 0.0840350501726906, 0, 0.0208421234689102, 1.11190474268894, -0.132746866157851, 0, -0.0915122574225729, -0.127746712807307, 1.21925897022988, 0, 0, 0, 0, 1]}

  - !<ColorSpace>
    name: ocio:lin_dwg_scene
    interop_id: ocio:lin_dwg_scene
    encoding: scene-linear
    to_scene_reference: !<MatrixTransform> {name: dwg_to_ap0, matrix: [0.748270290272981, 0.167694659554328, 0.0840350501726906, 0, 0.0208421234689102, 1.11190474268894, -0.132746866157851, 0, -0.0915122574225729, -0.127746712807307, 1.21925897022988, 0, 0, 0, 0, 1]}

  - !<ColorSpace>
    name: ocio:canonlog3_cgamutd55_scene
    interop_id: ocio:canonlog3_cgamutd55_scene
    encoding: log
    to_scene_reference: !<BuiltinTransform> {style: CANON_CLOG3-CGAMUT_to_ACES2065-1}

  - !<ColorSpace>
    name: ocio:canonlog2_cgamutd55_scene
    interop_id: ocio:canonlog2_cgamutd55_scene
    encoding: log
    to_scene_reference: !<BuiltinTransform> {style: CANON_CLOG2-CGAMUT_to_ACES2065-1}

  - !<ColorSpace>
    name: ocio:lin_cgamutd55_scene
    interop_id: ocio:lin_cgamutd55_scene
    encoding: scene-linear
    to_scene_reference: !<MatrixTransform> {name: cgamutd65_to_ap0, matrix: [0.763064454775734, 0.14902116113706, 0.0879143840872056, 0, 0.00365745670512393, 1.10696038037622, -0.110617837081339, 0, -0.0094077940457189, -0.218383304989987, 1.22779109903571, 0, 0, 0, 0, 1]}

  - !<ColorSpace>
    name: ocio:djilog_dgamut_scene
    interop_id: ocio:djilog_dgamut_scene
    encoding: log
    to_scene_reference: !<GroupTransform>
      children:
        - !<LogCameraTransform> {name: djilog, base: 10, log_side_slope: 0.256662970719888, log_side_offset: 0.58455504907396, lin_side_slope: 0.9892, lin_side_offset: 0.0108, lin_side_break: 0.00758078675, direction: inverse}
        - !<MatrixTransform> {name: dgamut_to_ap0, matrix: [0.691279245585754, 0.214382527745956, 0.0943382266682902, 0, 0.0662224037667752, 1.0116160801876, -0.0778384839543733, 0, -0.0172985410341745, -0.0773788501012682, 1.09467739113544, 0, 0, 0, 0, 1]}

  - !<ColorSpace>
    name: ocio:lin_dgamut_scene
    interop_id: ocio:lin_dgamut_scene
    encoding: scene-linear
    to_scene_reference: !<MatrixTransform> {name: dgamut_to_ap0, matrix: [0.691279245585754, 0.214382527745956, 0.0943382266682902, 0, 0.0662224037667752, 1.0116160801876, -0.0778384839543733, 0, -0.0172985410341745, -0.0773788501012682, 1.09467739113544, 0, 0, 0, 0, 1]}

  - !<ColorSpace>
    name: ocio:vlog_vgamut_scene
    interop_id: ocio:vlog_vgamut_scene
    encoding: log
    to_scene_reference: !<BuiltinTransform> {style: PANASONIC_VLOG-VGAMUT_to_ACES2065-1}
  
  - !<ColorSpace>
    name: ocio:lin_vgamut_scene
    interop_id: ocio:lin_vgamut_scene
    encoding: scene-linear
    to_scene_reference: !<MatrixTransform> {name: vgamut_to_ap0, matrix: [0.72461670413153, 0.166915288193706, 0.108468007674764, 0, 0.021390245413146, 0.984908155703054, -0.00629840111620089, 0, -0.00923556287076561, -0.00105690563900513, 1.01029246850977, 0, 0, 0, 0, 1]}

  - !<ColorSpace>
    name: ocio:redlog3g10_rwg_scene
    interop_id: ocio:redlog3g10_rwg_scene
    encoding: log
    to_scene_reference: !<BuiltinTransform> {style: RED_LOG3G10-RWG_to_ACES2065-1}

  - !<ColorSpace>
    name: ocio:lin_rwg_scene
    interop_id: ocio:lin_rwg_scene
    encoding: scene-linear
    to_scene_reference: !<MatrixTransform> {name: rwg_to_ap0, matrix: [0.785058804068092, 0.0838587565440846, 0.131082439387823, 0, 0.0231738348454756, 1.08789754919233, -0.111071384037806, 0, -0.0737604353682082, -0.314590072290208, 1.38835050765842, 0, 0, 0, 0, 1]}

  - !<ColorSpace>
    name: ocio:slog3_sgamut3_scene
    interop_id: ocio:slog3_sgamut3_scene
    encoding: log
    to_scene_reference: !<BuiltinTransform> {style: SONY_SLOG3-SGAMUT3_to_ACES2065-1}

  - !<ColorSpace>
    name: ocio:slog3_sgamut3cine_scene
    interop_id: ocio:slog3_sgamut3cine_scene
    encoding: log
    to_scene_reference: !<BuiltinTransform> {style: SONY_SLOG3-SGAMUT3.CINE_to_ACES2065-1}

  - !<ColorSpace>
    name: ocio:slog3_sgamut3venice_scene
    interop_id: ocio:slog3_sgamut3venice_scene
    encoding: log
    to_scene_reference: !<BuiltinTransform> {style: SONY_SLOG3-SGAMUT3-VENICE_to_ACES2065-1}

  - !<ColorSpace>
    name: ocio:slog3_sgamut3cinevenice_scene
    interop_id: ocio:slog3_sgamut3cinevenice_scene
    encoding: log
    to_scene_reference: !<BuiltinTransform> {style: SONY_SLOG3-SGAMUT3.CINE-VENICE_to_ACES2065-1}

  - !<ColorSpace>
    name: ocio:lin_sgamut3_scene
    interop_id: ocio:lin_sgamut3_scene
    encoding: scene-linear
    to_scene_reference: !<MatrixTransform> {name: sgamut3_to_ap0, matrix: [0.75298259539984, 0.143370216235557, 0.103647188364603, 0, 0.0217076974414429, 1.01531883550528, -0.0370265329467195, 0, -0.00941605274963355, 0.00337041785882367, 1.00604563489081, 0, 0, 0, 0, 1]}

  - !<ColorSpace>
    name: ocio:lin_sgamut3cine_scene
    interop_id: ocio:lin_sgamut3cine_scene
    encoding: scene-linear
    to_scene_reference: !<MatrixTransform> {name: sgamut3cine_to_ap0, matrix: [0.638788667185978, 0.272351433711262, 0.0888598991027595, 0, -0.00391590602528224, 1.0880732308974, -0.0841573248721177, 0, -0.0299072021239151, -0.0264325799101947, 1.05633978203411, 0, 0, 0, 0, 1]}

  - !<ColorSpace>
    name: ocio:lin_sgamut3venice_scene
    interop_id: ocio:lin_sgamut3venice_scene
    encoding: scene-linear
    to_scene_reference: !<MatrixTransform> {name: sgamut3venice_to_ap0, matrix: [0.793329741146434, 0.089078625620677, 0.117591633232888, 0, 0.0155810585252582, 1.03271230692988, -0.0482933654551394, 0, -0.0188647477991488, 0.0127694120973433, 1.00609533570181, 0, 0, 0, 0, 1]}

  - !<ColorSpace>
    name: ocio:lin_sgamut3cinevenice_scene
    interop_id: ocio:lin_sgamut3cinevenice_scene
    encoding: scene-linear
    to_scene_reference: !<MatrixTransform> {name: sgamut3cinevenice_to_ap0, matrix: [0.674257092126512, 0.220571735923397, 0.10517117195009, 0, -0.00931360607857167, 1.10595886142466, -0.0966452553460855, 0, -0.0382090673002312, -0.017938376600236, 1.05614744390047, 0, 0, 0, 0, 1]}

  
  - !<ColorSpace>
    name: g18_rec709_scene
    interop_id: g18_rec709_scene
    encoding: sdr-video
    to_scene_reference: !<GroupTransform>
      children:
        - !<ExponentTransform> {name: g18, value: 1.8, style: pass_thru}
        - !<MatrixTransform> {name: rec709_to_ap0, matrix: [0.439632981919491, 0.382988698151554, 0.177378319928955, 0, 0.0897764429588424, 0.813439428748981, 0.0967841282921771, 0, 0.0175411703831727, 0.111546553302387, 0.87091227631444, 0, 0, 0, 0, 1]}
  
  - !<ColorSpace>
    name: g22_rec709_scene
    interop_id: g22_rec709_scene
    encoding: sdr-video
    to_scene_reference: !<GroupTransform>
      children:
        - !<ExponentTransform> {name: g22, value: 2.2, style: pass_thru}
        - !<MatrixTransform> {name: rec709_to_ap0, matrix: [0.439632981919491, 0.382988698151554, 0.177378319928955, 0, 0.0897764429588424, 0.813439428748981, 0.0967841282921771, 0, 0.0175411703831727, 0.111546553302387, 0.87091227631444, 0, 0, 0, 0, 1]}

  - !<ColorSpace>
    name: srgb_rec709_scene
    aliases: [sRGB - Texture]
    interop_id: srgb_rec709_scene
    encoding: sdr-video
    to_scene_reference: !<GroupTransform>
      children:
        - !<ExponentWithLinearTransform> {name: srgb, gamma: 2.4, offset: 0.055}
        - !<MatrixTransform> {name: rec709_to_ap0, matrix: [0.439632981919491, 0.382988698151554, 0.177378319928955, 0, 0.0897764429588424, 0.813439428748981, 0.0967841282921771, 0, 0.0175411703831727, 0.111546553302387, 0.87091227631444, 0, 0, 0, 0, 1]}

  - !<ColorSpace>
    name: srgb_ap1_scene
    interop_id: srgb_ap1_scene
    encoding: sdr-video
    to_scene_reference: !<GroupTransform>
      children:
        - !<ExponentWithLinearTransform> {name: srgb, gamma: 2.4, offset: 0.055}
        - !<BuiltinTransform> {style: ACEScg_to_ACES2065-1}
  
  - !<ColorSpace>
    name: g22_ap1_scene
    interop_id: g22_ap1_scene
    encoding: sdr-video
    to_scene_reference: !<GroupTransform>
      children:
        - !<ExponentTransform> {name: g22,value: 2.2, style: pass_thru}
        - !<BuiltinTransform> {style: ACEScg_to_ACES2065-1}
        
  - !<ColorSpace>
    name: srgb_p3d65_scene
    interop_id: srgb_p3d65_scene
    encoding: sdr-video
    to_scene_reference: !<GroupTransform>
      children:
        - !<ExponentWithLinearTransform> {name: srgb, gamma: 2.4, offset: 0.055}
        - !<MatrixTransform> {name: p3d65_to_ap0, matrix: [0.518933487597981, 0.28625658638669, 0.194809926015329, 0, 0.0738593830470598, 0.819845163936986, 0.106295453015954, 0, -0.000307011368446647, 0.0438070502536223, 0.956499961114824, 0, 0, 0, 0, 1]}
  
  - !<ColorSpace>
    name: g22_adobergb_scene
    interop_id: g22_adobergb_scene
    encoding: sdr-video
    to_scene_reference: !<GroupTransform>
      children:
        - !<ExponentTransform> {name: adobeg22, value: 2.19921875, style: pass_thru}
        - !<MatrixTransform> {name: adobe1998_to_ap0, matrix: [0.614763305501725, 0.200243702572018, 0.184992991926256, 0, 0.125539404683864, 0.773521622216629, 0.100938973099507, 0, 0.0245287963611042, 0.0671715435381276, 0.908299660100768, 0, 0, 0, 0, 1]}

  - !<ColorSpace>
    name: ocio:g24_rec709_scene
    interop_id: ocio:g24_rec709_scene
    encoding: sdr-video
    to_scene_reference: !<GroupTransform>
      children:
        - !<ExponentTransform> {name: g24, value: 2.4, style: pass_thru}
        - !<MatrixTransform> {name: rec709_to_ap0, matrix: [0.439632981919491, 0.382988698151554, 0.177378319928955, 0, 0.0897764429588424, 0.813439428748981, 0.0967841282921771, 0, 0.0175411703831727, 0.111546553302387, 0.87091227631444, 0, 0, 0, 0, 1]}
  
  - !<ColorSpace>
    name: ocio:itu709_rec709_scene
    interop_id: ocio:itu709_rec709_scene
    encoding: sdr-video
    to_scene_reference: !<GroupTransform>
      children:
        - !<ExponentWithLinearTransform> {name: itu709, gamma: 2.22222222222222, offset: 0.099}
        - !<MatrixTransform> {name: rec709_to_ap0, matrix: [0.439632981919491, 0.382988698151554, 0.177378319928955, 0, 0.0897764429588424, 0.813439428748981, 0.0967841282921771, 0, 0.0175411703831727, 0.111546553302387, 0.87091227631444, 0, 0, 0, 0, 1]}
        
display_colorspaces:
  - !<ColorSpace>
    name: lin_ciexyzd65_display
    interop_id: lin_ciexyzd65_display
    encoding: display-linear

  - !<ColorSpace>
    name: lin_rec709_display
    interop_id: lin_rec709_display
    encoding: display-linear
    from_display_reference: !<MatrixTransform> {name: ciexyzd65_to_rec709, matrix: [3.24096994190452, -1.53738317757009, -0.498610760293003, 0, -0.96924363628088, 1.87596750150772, 0.0415550574071756, 0, 0.0556300796969936, -0.203976958888976, 1.05697151424288, 0, 0, 0, 0, 1]}

  - !<ColorSpace>
    name: lin_p3d65_display
    interop_id: lin_p3d65_display
    encoding: display-linear
    from_display_reference: !<MatrixTransform> {name: ciexyzd65_to_p3d65, matrix: [2.49349691194143, -0.931383617919124, -0.402710784450717, 0, -0.829488969561575, 1.76266406031835, 0.0236246858419436, 0, 0.0358458302437845, -0.0761723892680418, 0.956884524007688, 0, 0, 0, 0, 1]}

  - !<ColorSpace>
    name: lin_rec2020_display
    interop_id: lin_rec2020_display
    encoding: display-linear
    from_display_reference: !<MatrixTransform> {name: ciexyzd65_to_rec2020, matrix: [1.71665118797127, -0.355670783776392, -0.25336628137366, 0, -0.666684351832489, 1.61648123663494, 0.0157685458139111, 0, 0.0176398574453108, -0.0427706132578085, 0.942103121235474, 0, 0, 0, 0, 1]}

  - !<ColorSpace>
    name: srgb_rec709_display
    interop_id: srgb_rec709_display
    encoding: sdr-video
    from_display_reference: !<GroupTransform>
      children:
        - !<MatrixTransform> {name: ciexyzd65_to_rec709, matrix: [3.24096994190452, -1.53738317757009, -0.498610760293003, 0, -0.96924363628088, 1.87596750150772, 0.0415550574071756, 0, 0.0556300796969936, -0.203976958888976, 1.05697151424288, 0, 0, 0, 0, 1]}
        - !<ExponentWithLinearTransform> {name: srgb, gamma: 2.4, offset: 0.055, style: mirror, direction: inverse}

  - !<ColorSpace>
    name: g24_rec709_display
    interop_id: g24_rec709_display
    encoding: sdr-video
    from_display_reference: !<GroupTransform>
      children:
        - !<MatrixTransform> {name: ciexyzd65_to_rec709, matrix: [3.24096994190452, -1.53738317757009, -0.498610760293003, 0, -0.96924363628088, 1.87596750150772, 0.0415550574071756, 0, 0.0556300796969936, -0.203976958888976, 1.05697151424288, 0, 0, 0, 0, 1]}
        - !<ExponentTransform> {name: g24, value: 2.4, style: mirror, direction: inverse}

  - !<ColorSpace>
    name: srgb_p3d65_display
    interop_id: srgb_p3d65_display
    encoding: sdr-video
    from_display_reference: !<GroupTransform>
      children:
        - !<MatrixTransform> {name: ciexyzd65_to_p3d65, matrix: [2.49349691194143, -0.931383617919124, -0.402710784450717, 0, -0.829488969561575, 1.76266406031835, 0.0236246858419436, 0, 0.0358458302437845, -0.0761723892680418, 0.956884524007688, 0, 0, 0, 0, 1]}
        - !<ExponentWithLinearTransform> {name: srgb, gamma: 2.4, offset: 0.055, style: mirror, direction: inverse}

  - !<ColorSpace>
    name: srgbe_p3d65_display
    interop_id: srgbe_p3d65_display
    encoding: edr-video
    from_display_reference: !<GroupTransform>
      children:
        - !<MatrixTransform> {name: ciexyzd65_to_p3d65, matrix: [2.49349691194143, -0.931383617919124, -0.402710784450717, 0, -0.829488969561575, 1.76266406031835, 0.0236246858419436, 0, 0.0358458302437845, -0.0761723892680418, 0.956884524007688, 0, 0, 0, 0, 1]}
        - !<ExponentWithLinearTransform> {name: srgb, gamma: 2.4, offset: 0.055, style: mirror, direction: inverse}

  - !<ColorSpace>
    name: pq_p3d65_display
    interop_id: pq_p3d65_display
    encoding: hdr-video
    from_display_reference: !<BuiltinTransform> {style: DISPLAY - CIE-XYZ-D65_to_ST2084-P3-D65}

  - !<ColorSpace>
    name: pq_rec2020_display
    interop_id: pq_rec2020_display
    encoding: hdr-video
    from_display_reference: !<BuiltinTransform> {style: DISPLAY - CIE-XYZ-D65_to_REC.2100-PQ}

  - !<ColorSpace>
    name: hlg_rec2020_display
    interop_id: hlg_rec2020_display
    encoding: hdr-video
    from_display_reference: !<BuiltinTransform> {style: DISPLAY - CIE-XYZ-D65_to_REC.2100-HLG-1000nit}

  - !<ColorSpace>
    name: g22_rec709_display
    interop_id: g22_rec709_display
    encoding: sdr-video
    from_display_reference: !<GroupTransform>
      children:
        - !<MatrixTransform> {name: ciexyzd65_to_rec709, matrix: [3.24096994190452, -1.53738317757009, -0.498610760293003, 0, -0.96924363628088, 1.87596750150772, 0.0415550574071756, 0, 0.0556300796969936, -0.203976958888976, 1.05697151424288, 0, 0, 0, 0, 1]}
        - !<ExponentTransform> {name: g22, value: 2.2, style: mirror, direction: inverse}

  - !<ColorSpace>
    name: g22_adobergb_display
    interop_id: g22_adobergb_display
    encoding: sdr-video
    from_display_reference: !<GroupTransform>
      children:
        - !<MatrixTransform> {name: ciexyzd65_to_adobergb, matrix: [2.04158790381075, -0.56500697427886, -0.34473135077833, 0, -0.96924363628088, 1.87596750150772, 0.0415550574071756, 0, 0.0134442806320311, -0.118362392231018, 1.01517499439121, 0, 0, 0, 0, 1]}
        - !<ExponentTransform> {name: adobeg22, value: 2.19921875, style: mirror, direction: inverse}

  - !<ColorSpace>
    name: g26_p3d65_display
    interop_id: g26_p3d65_display
    encoding: sdr-video
    from_display_reference: !<GroupTransform>
      children:
        - !<MatrixTransform> {name: ciexyzd65_to_p3d65, matrix: [2.49349691194143, -0.931383617919124, -0.402710784450717, 0, -0.829488969561575, 1.76266406031835, 0.0236246858419436, 0, 0.0358458302437845, -0.0761723892680418, 0.956884524007688, 0, 0, 0, 0, 1]}
        - !<ExponentTransform> {name: g26, value: 2.6, style: mirror, direction: inverse}

  - !<ColorSpace>
    name: g26_xyzd65_display
    interop_id: g26_xyzd65_display
    encoding: sdr-video
    from_display_reference: !<GroupTransform>
      children:
        - !<RangeTransform> {name: dci_white_headroom, min_in_value: 0, max_in_value: 1, min_out_value: 0, max_out_value: 0.916555279740309, style: noClamp}
